X: 47
T:Donald Blue
G:march
S:Scots Guards pipe tune book
M:2/4
L:1/8
Q:1/4=88
K:EDor
   d>B G>B|dB cA|d>B G>B|AB e2 |
   d>B G>B|dB cA|B>A G>B|AB e2:|
   B>B g>e|dB cA|B>B g>e|dB e2 |
[1 B>B g>e|dB cA|B>A G>B|AB e2:|
[2 e>f g>e|dB cA|B>A G>B|AB e2|]


4. The Mixolydian Mode
== ===================

The MIXOLYDIAN mode has semitone 6 as its home note (G in the white-note
scale); interval sequence TTS T TST.  In A, it's AB^cde^fga.  In sol-fa,
it's the so-mode.

